src/16/actions/boundingbox_bottom_right.svg

<svg xmlns="http://www.w3.org/2000/svg" width="16" height="16" viewBox="0 0 16 16">
 <defs>
  <style id="current-color-scheme" type="text/css">
   .ColorScheme-Text { color:#565656; } .ColorScheme-Highlight { color:#5294e2; }
  </style>
 </defs>
 <path style="fill:currentColor" class="ColorScheme-Text" d="M 10 0 L 10 6.1015625 C 9.7766 6.1489625 9.5566969 6.2115625 9.3417969 6.2890625 C 9.3050969 6.3019625 9.2687219 6.314425 9.2324219 6.328125 C 8.8123219 6.487125 8.4155344 6.7018969 8.0527344 6.9667969 C 8.0227344 6.9886969 7.9943437 7.0125563 7.9648438 7.0351562 C 7.7895438 7.1679563 7.6230969 7.3120969 7.4667969 7.4667969 C 7.3060969 7.6288969 7.1566313 7.801775 7.0195312 7.984375 C 7.0005813 8.009405 6.9833238 8.0351469 6.9648438 8.0605469 C 6.8421037 8.2278869 6.7299162 8.4027044 6.6289062 8.5839844 C 6.6188662 8.6021644 6.6094094 8.6203619 6.5996094 8.6386719 C 6.4876794 8.8451119 6.3904337 9.0591869 6.3085938 9.2792969 C 6.3077937 9.2812969 6.3073466 9.2832563 6.3066406 9.2851562 L 6.3027344 9.296875 C 6.2209544 9.523635 6.1556819 9.7560075 6.1074219 9.9921875 C 6.1068219 9.9947875 6.1060108 9.9973 6.1054688 10 L 0 10 L 0 12 L 6.1015625 12 C 6.1579625 12.268 6.2364375 12.532109 6.3359375 12.787109 C 6.3461075 12.813689 6.3546344 12.840837 6.3652344 12.867188 C 6.4591344 13.098188 6.5700656 13.321156 6.6972656 13.535156 C 6.7257656 13.584156 6.7550562 13.630734 6.7851562 13.677734 C 6.9139562 13.882734 7.0575437 14.078672 7.2148438 14.263672 C 7.2371937 14.289582 7.2622963 14.312461 7.2851562 14.337891 C 7.4403662 14.510771 7.6074363 14.672616 7.7851562 14.822266 C 7.8117362 14.844626 7.8362513 14.868825 7.8632812 14.890625 C 8.0529413 15.041705 8.2533406 15.178781 8.4628906 15.300781 C 8.5089806 15.328011 8.5545725 15.355099 8.6015625 15.380859 C 8.8115125 15.496629 9.0295262 15.597151 9.2539062 15.681641 C 9.2977192 15.698001 9.3423627 15.711403 9.3867188 15.726562 C 9.6180788 15.806993 9.8550531 15.870316 10.095703 15.916016 C 10.109523 15.918516 10.122869 15.921428 10.136719 15.923828 C 10.421729 15.974158 10.71058 15.999643 11 16 C 11.167 16 11.334 15.990609 11.5 15.974609 C 11.66741 15.957999 11.832001 15.933101 11.994141 15.900391 C 12.008061 15.897591 12.021276 15.893525 12.035156 15.890625 C 12.339356 15.826015 12.636878 15.733161 12.923828 15.613281 C 12.931448 15.610081 12.939666 15.608669 12.947266 15.605469 L 12.962891 15.597656 C 13.240361 15.478086 13.506422 15.333616 13.757812 15.166016 C 13.774092 15.155216 13.792454 15.147709 13.808594 15.136719 C 14.056514 14.966549 14.288573 14.77437 14.501953 14.5625 C 14.516803 14.54789 14.532195 14.534321 14.546875 14.519531 C 14.748585 14.314381 14.932203 14.092199 15.095703 13.855469 C 15.118983 13.822159 15.145489 13.791702 15.167969 13.757812 C 15.320359 13.524503 15.452993 13.278847 15.564453 13.023438 C 15.583723 12.980068 15.604977 12.938541 15.623047 12.894531 C 15.730837 12.630141 15.815783 12.357015 15.876953 12.078125 C 15.888623 12.025195 15.902109 11.973472 15.912109 11.919922 C 15.925589 11.844022 15.937266 11.767836 15.947266 11.691406 C 15.959126 11.605826 15.971016 11.520504 15.978516 11.433594 C 15.991896 11.289444 15.99912 11.14477 16 11 C 15.998 10.736 15.974641 10.471937 15.931641 10.210938 C 15.924751 10.167968 15.920109 10.124661 15.912109 10.082031 C 15.864989 9.8332513 15.799054 9.5883994 15.714844 9.3496094 C 15.703044 9.3160294 15.690224 9.28327 15.677734 9.25 C 15.587994 9.00761 15.479596 8.772505 15.353516 8.546875 C 15.344856 8.531555 15.334972 8.5171831 15.326172 8.5019531 C 15.194452 8.2737131 15.044906 8.0562325 14.878906 7.8515625 C 14.874786 7.8465025 14.871287 7.8410375 14.867188 7.8359375 C 14.699437 7.6329775 14.515929 7.4435912 14.318359 7.2695312 C 14.296199 7.2498312 14.274463 7.2302575 14.251953 7.2109375 C 14.052973 7.0388775 13.840727 6.8828006 13.617188 6.7441406 C 13.605277 6.7368206 13.592058 6.7318094 13.580078 6.7246094 C 13.094178 6.4309994 12.561829 6.2222919 12.005859 6.1074219 C 12.003759 6.1069219 12.0021 6.1058867 12 6.1054688 L 12 0 L 10 0 z"/>
</svg>

<svg xmlns="http://www.w3.org/2000/svg" width="16" height="16"><defs><style id="current-color-scheme" type="text/css"></style></defs><path d="M10 0v6.102c-.223.047-.443.11-.658.187-.037.013-.073.025-.11.04-.42.158-.816.373-1.18.638-.03.022-.058.046-.087.068a5 5 0 0 0-.498.432c-.16.162-.31.335-.447.517-.02.025-.037.051-.055.077a5 5 0 0 0-.336.523l-.03.055a5 5 0 0 0-.29.64l-.002.006-.004.012a5 5 0 0 0-.196.695L6.105 10H0v2h6.102c.056.268.134.532.234.787.01.027.019.054.03.08a4.968 4.968 0 0 0 .42.81c.128.206.272.402.429.587.022.026.047.048.07.074a5 5 0 0 0 .5.484c.027.023.051.047.078.069a5 5 0 0 0 .6.41l.139.08a5 5 0 0 0 .652.3c.044.017.088.03.133.046a5 5 0 0 0 .709.189l.04.008a5 5 0 0 0 1.858-.024c.014-.002.027-.006.041-.01a5 5 0 0 0 .889-.277c.007-.003.016-.004.023-.008l.016-.007a5 5 0 0 0 .795-.432c.016-.01.034-.018.05-.03a5 5 0 0 0 .694-.573l.045-.043a5 5 0 0 0 .549-.665c.023-.033.05-.063.072-.097a5 5 0 0 0 .396-.735c.02-.043.041-.084.059-.128a5 5 0 0 0 .254-.817c.012-.053.025-.105.035-.158.014-.076.025-.152.035-.229.012-.085.024-.17.032-.257.013-.145.02-.29.021-.434a5.094 5.094 0 0 0-.068-.79c-.007-.042-.012-.085-.02-.128a5 5 0 0 0-.197-.732l-.037-.1a5.001 5.001 0 0 0-.324-.703l-.028-.045a5 5 0 0 0-.447-.65l-.012-.016a5 5 0 0 0-.549-.566l-.066-.06a5 5 0 0 0-.635-.466c-.012-.007-.025-.012-.037-.02a5 5 0 0 0-1.574-.617L12 6.105V0h-2z" fill="currentColor" color="#565656"/></svg>
